symbolic/22x22/actions/mail-mark-notjunk.svg

<svg xmlns="http://www.w3.org/2000/svg" width="22" height="22"><defs><style id="current-color-scheme" type="text/css"></style></defs><path style="fill:currentColor;opacity:.3;color:#323a41" d="M5 1 1 5v6l4 4h6l4-4V5l-4-4H5zm2 3h2v3l-.25 2h-1.5L7 7V4zm1 5.75A1.25 1.25 0 0 1 9.25 11 1.25 1.25 0 0 1 8 12.25 1.25 1.25 0 0 1 6.75 11 1.25 1.25 0 0 1 8 9.75z" transform="translate(3 3)"/></svg>

<svg xmlns="http://www.w3.org/2000/svg" width="22" height="22" version="1.1">
 <defs>
  <style id="current-color-scheme" type="text/css">
   .ColorScheme-Text { color:#323a41; } .ColorScheme-Highlight { color:#4285f4; } .ColorScheme-NeutralText { color:#ff9800; } .ColorScheme-PositiveText { color:#4caf50; } .ColorScheme-NegativeText { color:#f44336; }
  </style>
 </defs>
 <g transform="translate(3,3)">
  <path style="fill:currentColor;opacity:0.3" class="ColorScheme-Text" d="M 5 1 L 1 5 L 1 11 L 5 15 L 11 15 L 15 11 L 15 5 L 11 1 L 5 1 z M 7 4 L 9 4 L 9 7 L 8.75 9 L 7.25 9 L 7 7 L 7 4 z M 8 9.75 A 1.25 1.25 0 0 1 9.25 11 A 1.25 1.25 0 0 1 8 12.25 A 1.25 1.25 0 0 1 6.75 11 A 1.25 1.25 0 0 1 8 9.75 z"/>
 </g>
</svg>
